X:1
T:Beware! O Soul, Beware!
T:Beware! O Soul, Beware!
T:Gustav A. Collin, 1903
T:Joseph Addison Alexander, 1848
T:Public Domain Courtesy of the Cyber Hymnal™
T:Public Domain Courtesy of the Cyber Hymnal™
C:Gustav A. Collin, 1903
Z:Public Domain
Z:Courtesy of the Cyber Hymnal™
%%score ( 1 2 ) ( 3 4 )
L:1/8
Q:1/4=100
M:4/4
K:G
V:1 treble 
V:2 treble 
V:3 bass 
V:4 bass 
V:1
 D2 | [DB]3 [DB] [EB][FB][GB][EB] | [Fc]6 [Fc]2 | [Fc]3 [Fc] [Ac]2 [Ec]2 | [DB]6 D2 | %5
w: 1.~There|is a time, I know not|when, A|place, I know not|where; That|
w: 2.~To|pass that lim- it is to|die, To|die as if by|stealth; It|
w: 3.~How|far may we go on in|sin? How|long will God for-|bear? Where|
 [DB]3 [DB] [EB][FB][GB][EB] | [Fc]6 [Fc]2 | [Fd]2 [Fc]2 [Ec]2 [Fc]2 | [GB]6 [=FG]2 | %9
w: marks the des- ti- ny of|man, To|glo- ry or des-|pair. There|
w: does not quench the beam- ing|eye, Or|pale the glow of|health. The|
w: does hope end? and where be-|gin The|con- fines of des-|pair? “An|
 [Ec]3 [Ec] [Ge][Ge][Gd][G^c] | [Gd]6 [GB]2 | [Gd]3 [Gd] [Gd]2 ([Ac][GB]) | [FA]6 D2 | %13
w: is a line by us un-|seen, That|cross- es ev- ery *|path, The|
w: con- science still may be at|ease, The|spir- it light and *|gay; That|
w: an- swer from the sky is|sent, Ye|that from God de- *|part, While|
 [DB]3 [DB] [EB][FB][GB][EB] | [Fc]6 [Fc]2 | [Fd]2 [Fc]2 [Ec]2 [Fc]2 | [GB]6 ||"^Refrain" z [=FG] | %18
w: hid- den bound- a- ry be-|tween God’s|pa- tience and His|wrath.||
w: which is pleas- ing still may|please And|care be thrust a-|way.|Be-|
w: it is called to- day, re-|pent And|hard- en not your|heart.”||
 !fermata![Ec]3 [Ec] [EG]2 [_EA]2 | [DB]6 [GB][Ac] | [Gd]2 [GB][Gd] [Gd]3 [GB] | [FA]6 z D | %22
w: ||||
w: ware! O soul, be-|ware! Lest you|cross the dead- line to-|night; Take|
w: ||||
 !fermata![DB]3 [B,G] [CA][B,G]!fermata![CA][DG] | [CE]6 !fermata![Ec]2 | [DB]3 [DG] [GB] [FA]3 | %25
w: |||
w: care! O dy- ing soul, take|care! Don’t|miss the guid- ing|
w: |||
 [DG]6 |] %26
w: |
w: light.|
w: |
V:2
 D2 | x8 | x8 | x8 | x6 D2 | x8 | x8 | x8 | x8 | x8 | x8 | x8 | x6 D2 | x8 | x8 | x8 | x6 || x2 | %18
 x8 | x8 | x8 | x7 D | x8 | x8 | x8 | x6 |] %26
V:3
 z2 | [G,,G,]4 [D,,D,]4 | [A,,A,]4 [D,,D,]4 | [D,,D,]4 [D,,D,]4 | [G,,G,]6 z2 | [G,,G,]4 [D,,D,]4 | %6
 [A,,A,]4 [D,,D,]4 | [D,,D,]4 [D,,D,]4 | [G,,G,]6 [G,,B,]2 | %9
 [C,G,]3 [C,G,] [C,C][C,C][G,B,][G,_B,] | [G,B,]6 [G,D]2 | [G,B,]3 [G,B,] [G,B,]2 D2 | [D,D]6 z2 | %13
 [G,,G,]4 [D,,D,]4 | [A,,A,]4 [D,,D,]4 | [D,,D,]4 [D,,D,]4 | [G,,G,]6 || z [G,B,] | %18
 !fermata![C,G,]3 [C,G,] [C,C]2 [C,C]2 | G,6 [G,D][G,D] | [G,B,]2 [G,D][G,B,] [G,B,]3 [G,D] | %21
 [D,D]6 z [D,F,] | !fermata![G,,G,]3 [G,,D,] [G,,D,][G,,D,]!fermata![G,,D,][B,,G,] | %23
 [C,G,]6 !fermata![A,,A,]2 | [D,G,]3 [D,B,] [D,D] [D,C]3 | [G,B,]6 |] %26
V:4
 x2 | x8 | x8 | x8 | x8 | x8 | x8 | x8 | x8 | x8 | x8 | x6 (F,G,) | x8 | x8 | x8 | x8 | x6 || x2 | %18
 x8 | G,6 x2 | x8 | x8 | x8 | x8 | x8 | x6 |] %26

